img/logo.svg

<svg width="484" height="137" viewBox="0 0 484 137" fill="none" xmlns="http://www.w3.org/2000/svg">
<path d="M107.334 0.544981C107.439 0.664931 107.545 0.799875 107.665 0.919826C125.511 19.4971 143.343 38.0744 161.189 56.6518C161.369 56.8317 161.505 57.0566 161.73 57.1466C161.896 57.0716 161.865 56.9666 161.865 56.8767C161.865 56.6368 161.865 56.3969 161.865 56.157C161.865 44.9566 161.865 33.7712 161.865 22.5709C161.865 21.5513 161.73 21.8512 162.452 21.1315C169.112 14.4892 175.773 7.83196 182.433 1.18971C182.613 1.00979 182.764 0.784882 183.065 0.649938C183.11 0.784882 183.17 0.889838 183.17 0.994794C183.185 1.20471 183.17 1.42961 183.17 1.63953C183.17 30.2777 183.17 58.9308 183.17 87.5689C183.17 87.8688 183.215 88.1837 183.11 88.5136C183.004 88.5435 182.914 88.5735 182.824 88.5735C182.629 88.5735 182.433 88.5735 182.253 88.5735C176.164 88.5735 170.089 88.5735 164 88.5735C163.038 88.5735 163.309 88.6785 162.467 87.9888C162.332 87.8838 162.226 87.7639 162.106 87.6439C154.949 80.5069 147.808 73.3548 140.651 66.2178C138.697 64.2686 136.742 62.3194 134.788 60.3702C127.736 53.3381 120.685 46.291 113.634 39.259C110.612 36.2452 107.59 33.2165 104.568 30.2027C104.447 30.0828 104.327 29.9628 104.207 29.8429C104.042 29.6929 103.966 29.498 103.966 29.2731C103.966 28.9132 103.966 28.5534 103.966 28.1935C103.966 25.5846 103.966 22.9757 103.951 20.3518C103.951 17.2781 103.936 14.2193 103.921 11.1456C103.921 9.13642 103.891 7.12726 103.876 5.10309C103.876 3.82862 103.846 2.56914 103.831 1.29467C103.831 1.02478 103.861 0.769888 103.876 0.5C105.034 0.5 106.192 0.5 107.334 0.5V0.544981Z" fill="#F6F6F6"/>
<path d="M103.996 39.348C104.297 39.6179 104.477 39.7828 104.643 39.9328C106.176 41.4621 107.695 42.9915 109.228 44.5059C114.4 49.6637 119.557 54.8066 124.729 59.9645C125.421 60.6542 125.315 60.4443 125.315 61.4039C125.315 70.1453 125.315 78.9016 125.315 87.643C125.315 87.9279 125.315 88.2128 125.3 88.5277C125.135 88.5576 125 88.5876 124.864 88.6026C124.699 88.6026 124.534 88.6026 124.353 88.6026C117.888 88.6026 111.423 88.6026 104.958 88.6026C104.673 88.6026 104.387 88.6476 104.071 88.5277C104.041 88.3927 104.011 88.2578 103.996 88.1228C103.996 87.8529 103.996 87.598 103.996 87.3281C103.996 71.6746 103.996 56.0361 103.996 40.3826C103.996 40.0977 103.996 39.8128 103.996 39.333V39.348Z" fill="#F6F6F6"/>
<path d="M217.073 60.4301C217.148 61.6147 217.118 87.9288 217.043 88.5435C216.923 88.5585 216.787 88.5885 216.652 88.6035C216.487 88.6035 216.321 88.6035 216.141 88.6035C209.646 88.6035 203.151 88.6035 196.671 88.6035C196.43 88.6035 196.19 88.6035 195.949 88.5885C195.739 88.5735 195.603 88.4386 195.588 88.2137C195.588 88.0487 195.588 87.8838 195.588 87.7039C195.588 71.7655 195.588 55.8271 195.588 39.8887V39.1689C195.754 39.2589 195.859 39.2889 195.949 39.3489C196.1 39.4688 196.22 39.6188 196.355 39.7537C203.091 46.4709 209.826 53.1732 216.547 59.8904C216.727 60.0703 216.908 60.2652 217.073 60.4301Z" fill="#F6F6F6"/>
<path d="M260.074 51.0283C258.645 52.4528 257.232 53.8772 255.804 55.3016C254.375 56.726 252.962 58.1504 251.534 59.5898C250.106 61.0142 248.692 62.4386 247.264 63.878C245.836 65.3024 244.422 66.7418 242.994 68.1663C241.566 69.5907 240.168 71.0301 238.709 72.4395C238.559 72.3195 238.424 72.2446 238.333 72.1396C224.035 57.8505 209.752 43.5614 195.439 29.2574C195.484 19.7963 195.529 10.3652 195.574 0.91908C195.574 0.859105 195.619 0.784136 195.664 0.67918C195.89 0.67918 196.131 0.67918 196.371 0.67918C197.063 0.67918 197.769 0.67918 198.461 0.67918C198.807 0.67918 199.062 0.784137 199.288 1.02404C200.01 1.78872 200.746 2.5534 201.483 3.31809C213.601 15.9728 225.734 28.6276 237.852 41.2674C238.123 41.5373 238.378 41.8222 238.679 42.122C238.89 41.9121 239.055 41.7622 239.22 41.5823C247.008 33.4106 254.781 25.254 262.569 17.0824C267.591 11.8196 272.598 6.55675 277.619 1.29393C278.311 0.574223 278.04 0.67918 279.033 0.67918C279.679 0.67918 280.326 0.67918 280.987 0.67918C281.137 0.67918 281.273 0.67918 281.423 0.709168C281.604 0.739156 281.724 0.859105 281.739 1.05402C281.739 1.24894 281.739 1.44386 281.739 1.62379C281.739 4.5026 281.739 7.3814 281.739 10.2452C281.739 17.922 281.739 25.5839 281.739 33.2607C281.739 45.6006 281.739 57.9405 281.754 70.2954C281.754 76.098 281.754 81.9006 281.754 87.7032C281.754 87.988 281.739 88.2729 281.724 88.5578C281.408 88.6478 281.107 88.6178 280.837 88.6178C276.251 88.6178 271.65 88.6178 267.065 88.6178C265.095 88.6178 263.126 88.6178 261.156 88.6178C260.254 88.6178 260.239 88.6178 260.239 87.6882C260.239 75.7831 260.239 63.863 260.239 51.958C260.239 51.6731 260.239 51.4032 260.224 51.1183C260.179 51.1033 260.119 51.0733 260.074 51.0583V51.0283Z" fill="#F6F6F6"/>
<path d="M293.06 88.4536C293.015 88.3036 292.984 88.2436 292.984 88.1687C292.984 81.2415 292.984 74.3144 292.984 67.3873C292.984 67.3273 293.015 67.2523 293.045 67.1624C293.135 67.1474 293.225 67.1174 293.315 67.1174C293.586 67.1174 293.841 67.1174 294.112 67.1174C313.462 67.1174 332.827 67.1174 352.177 67.1174C352.613 67.1174 353.049 67.0874 353.47 67.0274C355.89 66.6976 358.401 64.1786 358.07 61.0599C357.77 58.2111 355.484 56.4268 353.485 56.1719C352.958 56.1119 352.432 56.067 351.906 56.067C344.404 56.067 336.901 56.067 329.399 56.067C326.151 56.067 322.904 56.1119 319.656 56.052C311.312 55.902 304.441 52.5884 299.059 46.261C295.886 42.5426 293.977 38.2094 293.18 33.4113C292.789 31.0873 292.744 28.7333 292.969 26.3942C293.405 21.9711 294.819 17.8778 297.314 14.1893C301.088 8.61161 306.23 4.87815 312.725 3.00393C313.236 2.85399 313.748 2.71905 314.259 2.5991C314.439 2.55412 314.635 2.52413 314.8 2.49414C314.845 2.49414 314.86 2.50914 314.89 2.52413C314.905 2.52413 314.935 2.53912 314.95 2.55412C321.791 9.3613 328.632 16.1685 335.473 22.9757C335.563 23.0656 335.638 23.1556 335.713 23.2456C335.713 23.2605 335.713 23.2905 335.728 23.3205C335.608 23.5004 335.428 23.4105 335.277 23.4105C332.03 23.4105 328.782 23.4105 325.535 23.4105C323.656 23.4105 321.791 23.4105 319.912 23.4105C318.769 23.4105 317.732 23.7553 316.8 24.4151C315.296 25.4796 314.424 26.934 314.394 28.7783C314.334 31.777 316.469 33.9061 318.95 34.341C319.371 34.4159 319.807 34.4459 320.243 34.4459C323.099 34.4459 325.971 34.4459 328.827 34.4459C336.976 34.4459 345.125 34.4459 353.274 34.4459C356.867 34.4459 360.355 34.9707 363.738 36.1702C367.347 37.4447 370.534 39.3939 373.225 42.1377C376.067 45.0165 377.946 48.4651 379.104 52.3035C379.585 53.9079 379.901 55.5572 380.081 57.2365C380.141 57.8812 380.156 58.5259 380.156 59.1707C380.156 60.5351 380.156 61.8995 380.111 63.264C380.051 64.8983 379.75 66.5026 379.344 68.077C376.909 77.628 369.827 84.8251 360.28 87.434C357.815 88.1087 355.289 88.4236 352.733 88.4086C350.523 88.4086 348.313 88.4086 346.102 88.4086H293.045L293.06 88.4536Z" fill="#F6F6F6"/>
<path d="M169.427 112.033H192.67V118.136H184.867V136.728H177.215V118.136H169.412V112.033H169.427Z" fill="#F6F6F6"/>
<path d="M226.287 132.648H217.597L216.394 136.727H208.591L217.898 112.047H226.242L235.549 136.727H227.535L226.302 132.648H226.287ZM224.709 127.311L221.972 118.434L219.266 127.311H224.709Z" fill="#F6F6F6"/>
<path d="M253.576 112.033H261.995L266.371 119.62L270.64 112.033H278.985L271.287 123.983L279.721 136.713H271.122L266.235 128.781L261.349 136.713H252.809L261.349 123.848L253.591 112.033H253.576Z" fill="#F6F6F6"/>
<path d="M299.749 112.033H307.417V136.713H299.749V112.033Z" fill="#F6F6F6"/>
<mask id="mask0_4063_1112" style="mask-type:luminance" maskUnits="userSpaceOnUse" x="325" y="0" width="56" height="24">
<path d="M325.186 0.772199C325.878 0.682237 366.772 0.637255 379.447 0.69723C379.657 0.69723 379.868 0.697231 380.123 0.727219C380.138 0.907144 380.168 1.05708 380.168 1.20702C380.168 1.38695 380.168 1.56687 380.168 1.7468C380.168 8.65893 380.168 15.5561 380.168 22.4682C380.168 22.7681 380.168 23.068 380.153 23.4128C379.973 23.4428 379.838 23.4578 379.702 23.4728C379.537 23.4728 379.372 23.4728 379.191 23.4728C368.561 23.4728 357.947 23.4728 347.317 23.4728C346.295 23.4728 346.566 23.5778 345.889 22.8431C339.168 15.706 332.463 8.55398 325.742 1.40194C325.577 1.22201 325.412 1.04209 325.186 0.772199Z" fill="white"/>
</mask>
<g mask="url(#mask0_4063_1112)">
<path d="M335.561 12.0957H324.135V23.491H335.561V12.0957Z" fill="#2DB8C5"/>
<path d="M346.987 0.698242H335.56V12.0935H346.987V0.698242Z" fill="#2DB8C5"/>
<path d="M358.414 12.0957H346.987V23.491H358.414V12.0957Z" fill="#2DB8C5"/>
<path d="M369.854 0.698242H358.427V12.0935H369.854V0.698242Z" fill="#2DB8C5"/>
<path d="M381.281 12.0957H369.854V23.491H381.281V12.0957Z" fill="#2DB8C5"/>
</g>
</svg>

<svg width="484" height="137" fill="none" xmlns="http://www.w3.org/2000/svg"><path d="M107.334.545c.105.12.211.255.331.375 17.846 18.577 35.678 37.154 53.524 55.732.18.18.316.405.541.495.166-.075.135-.18.135-.27V22.57c0-1.02-.135-.72.587-1.44 6.66-6.642 13.321-13.299 19.981-19.941.18-.18.331-.405.632-.54.045.135.105.24.105.345.015.21 0 .435 0 .645v85.929c0 .3.045.615-.06.945-.106.03-.196.06-.286.06H164c-.962 0-.691.105-1.533-.585-.135-.105-.241-.225-.361-.345-7.157-7.137-14.298-14.29-21.455-21.426l-5.863-5.848c-7.052-7.032-14.103-14.079-21.154-21.111-3.022-3.014-6.044-6.042-9.066-9.056l-.361-.36a.738.738 0 0 1-.241-.57v-1.08c0-2.608 0-5.217-.015-7.841 0-3.074-.015-6.133-.03-9.206 0-2.01-.03-4.019-.045-6.043 0-1.274-.03-2.534-.045-3.808 0-.27.03-.525.045-.795h3.458v.045ZM103.996 39.348c.301.27.481.435.647.585 1.533 1.53 3.052 3.059 4.585 4.573l15.501 15.459c.692.69.586.48.586 1.439v26.239c0 .285 0 .57-.015.885-.165.03-.3.06-.436.075h-19.906c-.285 0-.571.045-.887-.075-.03-.135-.06-.27-.075-.405v-48.79.015ZM217.073 60.43c.075 1.185.045 27.499-.03 28.113-.12.015-.256.045-.391.06H196.671c-.241 0-.481 0-.722-.014-.21-.016-.346-.15-.361-.375V39.169c.166.09.271.12.361.18.151.12.271.27.406.405 6.736 6.717 13.471 13.42 20.192 20.136.18.18.361.375.526.54ZM260.074 51.028c-1.429 1.425-2.842 2.85-4.27 4.274-1.429 1.424-2.842 2.848-4.27 4.288a1153.36 1153.36 0 0 0-4.27 4.288c-1.428 1.424-2.842 2.864-4.27 4.288-1.428 1.425-2.826 2.864-4.285 4.273-.15-.12-.285-.194-.376-.3-14.298-14.288-28.581-28.578-42.894-42.882L195.574.92c0-.06.045-.135.09-.24H198.461c.346 0 .601.105.827.345.722.765 1.458 1.53 2.195 2.294 12.118 12.655 24.251 25.31 36.369 37.95.271.27.526.554.827.854.211-.21.376-.36.541-.54l23.349-24.5c5.022-5.262 10.029-10.525 15.05-15.788.692-.72.421-.615 1.414-.615h1.954c.15 0 .286 0 .436.03.181.03.301.15.316.345v32.207c0 12.34 0 24.68.015 37.034v17.408c0 .285-.015.57-.03.855-.316.09-.617.06-.887.06h-19.681c-.902 0-.917 0-.917-.93v-35.73c0-.285 0-.555-.015-.84-.045-.015-.105-.045-.15-.06v-.03ZM293.06 88.454c-.045-.15-.076-.21-.076-.285V67.387c0-.06.031-.135.061-.225.09-.015.18-.045.27-.045H352.177c.436 0 .872-.03 1.293-.09 2.42-.33 4.931-2.848 4.6-5.967-.3-2.849-2.586-4.633-4.585-4.888a13.97 13.97 0 0 0-1.579-.105h-22.507c-3.248 0-6.495.045-9.743-.015-8.344-.15-15.215-3.464-20.597-9.791-3.173-3.718-5.082-8.052-5.879-12.85-.391-2.324-.436-4.678-.211-7.017.436-4.423 1.85-8.516 4.345-12.205 3.774-5.577 8.916-9.31 15.411-11.185a28.94 28.94 0 0 1 1.534-.405c.18-.045.376-.075.541-.105.045 0 .06.015.09.03.015 0 .045.015.06.03l20.523 20.422c.09.09.165.18.24.27 0 .015 0 .045.015.075-.12.18-.3.09-.451.09H319.912c-1.143 0-2.18.344-3.112 1.004-1.504 1.065-2.376 2.519-2.406 4.363-.06 2.999 2.075 5.128 4.556 5.563.421.075.857.105 1.293.105h33.031c3.593 0 7.081.525 10.464 1.724 3.609 1.275 6.796 3.224 9.487 5.968 2.842 2.879 4.721 6.327 5.879 10.166.481 1.604.797 3.253.977 4.932.06.645.075 1.29.075 1.935 0 1.364 0 2.729-.045 4.093-.06 1.634-.361 3.239-.767 4.813-2.435 9.551-9.517 16.748-19.064 19.357-2.465.675-4.991.99-7.547.975h-59.688l.015.045ZM169.427 112.033h23.243v6.103h-7.803v18.592h-7.652v-18.592h-7.803v-6.103h.015ZM226.287 132.648h-8.69l-1.203 4.079h-7.803l9.307-24.68h8.344l9.307 24.68h-8.014l-1.233-4.079h-.015Zm-1.578-5.337-2.737-8.877-2.706 8.877h5.443ZM253.576 112.033h8.419l4.376 7.587 4.269-7.587h8.345l-7.698 11.95 8.434 12.73h-8.599l-4.887-7.932-4.886 7.932h-8.54l8.54-12.865-7.758-11.815h-.015ZM299.749 112.033h7.668v24.68h-7.668v-24.68Z" fill="#F6F6F6"/><mask id="a" style="mask-type:luminance" maskUnits="userSpaceOnUse" x="325" y="0" width="56" height="24"><path d="M325.186.772c.692-.09 41.586-.135 54.261-.075.21 0 .421 0 .676.03.015.18.045.33.045.48v21.261c0 .3 0 .6-.015.945a7.57 7.57 0 0 1-.451.06h-32.385c-1.022 0-.751.105-1.428-.63-6.721-7.137-13.426-14.289-20.147-21.441-.165-.18-.33-.36-.556-.63Z" fill="#fff"/></mask><g mask="url(#a)" fill="#2DB8C5"><path d="M335.561 12.096h-11.426V23.49h11.426V12.096ZM346.987.698H335.56v11.396h11.427V.697ZM358.414 12.096h-11.427V23.49h11.427V12.096ZM369.854.698h-11.427v11.396h11.427V.697ZM381.281 12.096h-11.427V23.49h11.427V12.096Z"/></g></svg>
